!!!COM: Haydn, Franz Joseph
!!!OTL: String Quartet in D Minor
!!!OPS: Opus 42
!!!OMD: Finale: Presto
!!!OMV: 4
!!!SCT: H III:43
!!!SCA: Thematisch-bibliographisches Werkevererzeichnis (A. van Hoboken)
!!!YOR: Trautwein Edition
!!!ENC: Frances Bennion
!!!CDT: 1732/3/31/-1809/5/31/
!!!CNT: Oesterreich
!!!YEC: Copyright (c) 1994, 2000 Center for Computer Assisted Research in the Humanities
!!!YEM: Rights to all derivative editions reserved.
!!!YEM: Refer to licensing agreement for further details.
!!!YEN: United States of America
**kern	**kern	**kern	**kern
*k[b-]	*k[b-]	*k[b-]	*k[b-]
*d:	*d:	*d:	*d:
*clefF4	*clefC3	*clefG	*clefG
*M2/4	*M2/4	*M2/4	*M2/4
2r	8r	2dd	2r
.	8d	.	.
.	8f	.	.
.	8d	.	.
=2	=2	=2	=2
2r	8r	2a	2r
.	8c#	.	.
.	8e	.	.
.	8A	.	.
=3	=3	=3	=3
2r	8d	8f	2r
.	8d	8f	.
.	8B-	8g	.
.	8B-	16f	.
.	.	16g	.
=4	=4	=4	=4
4.r	4A	4a	4.r
.	8r	8r	.
8A	8A	8cc#	8ee
=5	=5	=5	=5
8D	8A	8dd	8ff
8A	8A	8cc#	8ee
8D	8A	8dd	8ff
8A	8A	8cc#	8ee
=6	=6	=6	=6
4D	4A	8.dd	8.ff
.	.	16ee	16gg
8r	8r	8ff	8aa
8GG	8G	8gg	8bb-
=7	=7	=7	=7
8AA	4.A	8ff	8aa
8AA	.	8ee	8gg
8AA	.	8dd	8ff
8AA	8g	8cc#	8ee
=8	=8	=8	=8
4D	4f	8dd	2ddd
.	.	8dd	.
4r	4r	8ff	.
.	.	8dd	.
=9	=9	=9	=9
2r	2r	8r	2aa
.	.	8cc#	.
.	.	8ee	.
.	.	8a	.
=10	=10	=10	=10
2r	2r	8dd	8ff
.	.	8dd	8ff
.	.	8b-	8gg
.	.	8b-	16ff
.	.	.	16gg
=11	=11	=11	=11
2r	2r	2aa	8aa
.	.	.	8a
.	.	.	8cc
.	.	.	8a
=12	=12	=12	=12
2r	2r	2ee	8r
.	.	.	8g#
.	.	.	8b
.	.	.	8e
=13	=13	=13	=13
2r	2f	8cc	2a
.	.	8cc	.
.	.	8dd	.
.	.	16cc	.
.	.	16dd	.
=14	=14	=14	=14
2r	2c	8ee	8g
.	.	8e	8cc
.	.	8f	8dd
.	.	8g	8ee
=15	=15	=15	=15
2F	8A	8a	8ff
.	8A	8cc	8cc
.	8B-	8dd	[4ff
.	16A	16cc	.
.	16B-	16dd	.
=16	=16	=16	=16
2C	4c	8g	4ff]
.	.	8a	.
.	8g	8b-	4ee
.	16f	16a	.
.	16g	16b-	.
=17	=17	=17	=17
8AA	8a	4cc	8ff
8AA	8c	.	16ee
.	.	.	16ff
8BB-	8d	4r	8gg
16AA	8d	.	8ff
16BB-	.	.	.
=18	=18	=18	=18
4C	4G	8r	8ee
.	.	16cc	16ee
.	.	16dd	16ff
8r	8r	8ee	8gg
8F	8f	8ff	8aa
=19	=19	=19	=19
8C	8e	8gg	8bb-
8F	8f	8ff	8aa
8C	8e	8gg	8bb-
8F	8f	8ff	8aa
=20	=20	=20	=20
4c	4cc	8ee	8gg
.	.	16cc	16ee
.	.	16dd	16ff
8r	8r	8ee	8gg
8F	8f	8ff	8aa
=21	=21	=21	=21
8C	8e	8gg	8bb-
8F	8f	8ff	8aa
8C	8e	8gg	8bb-
8F	8f	8ff	8aa
=22	=22	=22	=22
4C	4cc	4ee	4gg
4r	4r	4r	4r
=23	=23	=23	=23
2A	2f#	2ee-	2ccc
=24	=24	=24	=24
2d	2a	2cc	2ff#
=25	=25	=25	=25
2G	2g	2dd	2bb-
=26	=26	=26	=26
2c	2b-	2g	2ee
=27	=27	=27	=27
8F	8a	[2f	8ff
8F	8a	.	8ff
8F	8b-	.	8gg
8F	16a	.	16ff
.	16b-	.	16gg
=28	=28	=28	=28
8F	8a	2f_	8ff
8F	8a	.	8ff
8F	8dd	.	8bb-
8F	16cc	.	16aa
.	16dd	.	16bb-
=29	=29	=29	=29
8F	8cc	2f_	8aa
8F	8cc	.	8aa
8F	8b-	.	8gg
8F	16a	.	16ff
.	16b-	.	16gg
=30	=30	=30	=30
8F	4a	4f]	[2ff
8F	.	.	.
8D	8f	8b-	.
16C	8f	16a	.
16D	.	16b-	.
=31	=31	=31	=31
8C	8f	8a	2ff_
8C	8f	8a	.
8BB-	8f	8dd	.
16AA	8f	16cc	.
16BB-	.	16dd	.
=32	=32	=32	=32
8AA	8f	8cc	2ff_
8A	8f	8cc	.
8G	8f	8b-	.
16F	8f	16a	.
16G	.	16b-	.
=33	=33	=33	=33
8F	8f	8a	4ff]
8F	8f	8a	.
8D	8c	8a	8ff#
8D	8c	16g	16ee
.	.	16a	16ff#
=34	=34	=34	=34
8BB-	8d	8b-	8gg
8AA	8c	8cc	8aa
8GG	8B-	8dd	8bb-
8GG	8d	8b-	8ddd
=35	=35	=35	=35
8C	8c	4a	4ff
8C	8c	.	.
8C	8g	4b-	4ee
8C	8g	.	.
=36	=36	=36	=36
4FF	4f	4a	4ff
8r	8g	8b-	8r
8C	16f	16a	8ee
.	16g	16b-	.
=37	=37	=37	=37
4FF	8f	8a	8ff
.	8f	8a	8ff
8r	8g	8b-	8r
8C	16f	16a	8ee
.	16g	16b-	.
=38	=38	=38	=38
4FF	8f	8a	8ff
.	8f	8a	8ff
8r	8g	8b-	8r
8C	16f	16a	8ee
.	16g	16b-	.
=39	=39	=39	=39
8FF	8f	8a	8ff
8C	8g	8b-	8ee
8FF	8f	8a	8ff
8C	8g	8b-	8ee
=40	=40	=40	=40
4FF	4f	4a	4ff
4r	4r	4r	4r
=41	=41	=41	=41
8DD	2A	2f#	2ddd
8D	.	.	.
8D	.	.	.
8D	.	.	.
=42	=42	=42	=42
8DD	2f#	2a	2aa
8D	.	.	.
8D	.	.	.
8D	.	.	.
=43	=43	=43	=43
8DD	8a	8cc	8ff#
8D	8a	8cc	8ff#
8D	8g	8b-	8gg
8D	8g	16a	16ff#
.	.	16b-	16gg
=44	=44	=44	=44
4DD	8f#	8a	4aa
.	8f#	8a	.
4r	8e	8g	4r
.	16d	16f#	.
.	16e	16g	.
=45	=45	=45	=45
8F#	4d	4f#	8aa
8F#	.	.	8aa
8G	4r	4r	8bb-
16F#	.	.	16aa
16G	.	.	16bb-
=46	=46	=46	=46
4A	8f#	8a	4ccc
.	8f#	8a	.
4r	8g	8b-	4r
.	16f#	16a	.
.	16g	16b-	.
=47	=47	=47	=47
2r	8a	4cc	8ccc
.	8a	.	8ccc
.	8b-	4r	8ddd
.	16a	.	16ccc
.	16b-	.	16ddd
=48	=48	=48	=48
2r	4cc	2r	4eee-
.	4r	.	4r
=49	=49	=49	=49
2r	2r	2r	2r
=50	=50	=50	=50
2r	8r	2gg	2r
.	8g	.	.
.	8b-	.	.
.	8g	.	.
=51	=51	=51	=51
2r	8r	2dd	2r
.	8f#	.	.
.	8a	.	.
.	8d	.	.
=52	=52	=52	=52
2E-	2g	8b-	2r
.	.	8b-	.
.	.	8cc	.
.	.	16b-	.
.	.	16cc	.
=53	=53	=53	=53
2BB-	8f	8dd	2r
.	8d	8b-	.
.	8e-	8cc	.
.	8f	8dd	.
=54	=54	=54	=54
8GG	8B-	2ee-	2r
8GG	8b-	.	.
8AA	8cc	.	.
16GG	16b-	.	.
16AA	16cc	.	.
=55	=55	=55	=55
4BB-	8b-	4dd	8dd
.	8b-	.	8dd
4r	8g	4r	8ee
.	16f	.	16dd
.	16g	.	16ee
=56	=56	=56	=56
8F	4f	8a	4ff
8F	.	8a	.
8D	4r	8b	4r
16C	.	16a	.
16D	.	16b	.
=57	=57	=57	=57
4C	8cc	4cc	8ee-
.	8cc	.	8ee-
4r	8a	4r	8ff#
.	16g	.	16ee
.	16a	.	16ff#
=58	=58	=58	=58
8G	4g	8b-	4gg
8G	.	8b-	.
8E	4r	8cc#	4r
16D	.	16b	.
16E	.	16cc#	.
=59	=59	=59	=59
4D	8dd	4dd	8ff
.	8dd	.	8ff
4r	8b-	4r	8gg#
.	8b-	.	16ff#
.	.	.	16gg#
=60	=60	=60	=60
2r	2a	8cc	8aa
.	.	8cc	8aa
.	.	8ee	8ccc
.	.	8cc	8aa
=61	=61	=61	=61
2r	2e	8b	8r
.	.	8a	8gg#
.	.	8g#	8bb
.	.	8gg#	8ee
=62	=62	=62	=62
2r	8c	8aa	8eee
.	8c	8ccc	8eee
.	8d	8bb	8ddd
.	16c	8aa	8ccc
.	16d	.	.
=63	=63	=63	=63
8r	4e	4.gg#	4.bb
8E	.	.	.
8D	4r	.	.
8C	.	8aa	8ccc
=64	=64	=64	=64
4BB	2r	8bb	8ddd
.	.	8bb	8ddd
4E	.	8aa	8ccc
.	.	8gg#	8bb
=65	=65	=65	=65
4AA	2r	8aa	8aa
.	.	8aa	8ff
4r	.	8gg	8ee
.	.	8ff	8dd
=66	=66	=66	=66
2r	8r	4.ee	4.cc#
.	8a	.	.
.	8g	.	.
.	8f	8ff	8dd
=67	=67	=67	=67
2r	4e	8gg	8ee
.	.	8gg	8ee
.	4a	8ff	8dd
.	.	8ee	8cc#
=68	=68	=68	=68
2D	8f	8ff	4dd
.	16e	8a	.
.	16f	.	.
.	8a	[4dd	4r
.	8f	.	.
=69	=69	=69	=69
2AA	8e	4dd]	2r
.	8f	.	.
.	8g	4cc#	.
.	16f	.	.
.	16e	.	.
=70	=70	=70	=70
8FF	8a	8dd	2r
8FF	8f	8a	.
8GG	8e	8g	.
16FF	8d	8f	.
16GG	.	.	.
=71	=71	=71	=71
[2AA	8c#	8e	2r
.	16A	16c#	.
.	16B	16d	.
.	8c#	8e	.
.	8d	8f	.
=72	=72	=72	=72
8AA]	8c#	8e	2r
8AA	8d	8f	.
8AA	8e	8g	.
8AA	8d	8f	.
=73	=73	=73	=73
[2AA	8c#	8e	8r
.	8a	16a	16cc#
.	.	16b	16dd
.	8g	8cc#	8ee
.	8f	8dd	8ff
=74	=74	=74	=74
8AA]	8g	8cc#	8ee
8AA	8f	8dd	8ff
8AA	8c#	8ee	8gg
8AA	8d	8dd	8ff
=75	=75	=75	=75
4AA	4A	4cc#	4ee
4r	4r	4r	4r
=76	=76	=76	=76
2GG	[2e-	2e-	2bb-
=77	=77	=77	=77
2G	2e-]	2b-	2ee-
=78	=78	=78	=78
2FF	[2d	2d	2aa
=79	=79	=79	=79
2F	2d]	2a	2dd
=80	=80	=80	=80
2EE	2G	2c#	2gg
=81	=81	=81	=81
2AA	2E	2g	2cc#
=82	=82	=82	=82
8DD	4A 4F	8f	8dd
8D	.	8f	8dd
8D	4r	8g	8ee
8D	.	16f	16dd
.	.	16g	16ee
=83	=83	=83	=83
8D	2r	8f	8dd
8D	.	8f	8dd
8D	.	8b-	8gg
8D	.	16a	16ff
.	.	16b-	16gg
=84	=84	=84	=84
8D	2r	8a	8ff
8D	.	8a	8ff
8D	.	8g	8ee
8D	.	16f	16dd
.	.	16g	16ee
=85	=85	=85	=85
8D	4r	4f	[2ddd
8D	.	.	.
8B-	8g	4r	.
16A	16f	.	.
16B-	16g	.	.
=86	=86	=86	=86
8A	8f	2r	2ddd_
8A	8f	.	.
8G	8b-	.	.
16F	16a	.	.
16G	16b-	.	.
=87	=87	=87	=87
8F	8a	2r	2ddd_
8F	8a	.	.
8E	8g	.	.
16D	16f	.	.
16E	16g	.	.
=88	=88	=88	=88
8D	8f	4r	8ddd]
8D	8f	.	8ddd
8F#	8d	8a	8ccc
8F#	8d	16g	16bb-
.	.	16a	16ccc
=89	=89	=89	=89
8G	8d	8b-	8bb-
8G	8G	8gg	8bb-
8G	8A	8ff	8aa
8G	8B-	8ee	8gg
=90	=90	=90	=90
8A	8A	4dd	4ff
8A	8A	.	.
8AA	8g	4cc#	4ee
8AA	8g	.	.
=91	=91	=91	=91
4D	8f	8dd	4dd
.	8d	8f	.
8r	8e	8g	8r
8A	16d	16f	8cc#
.	16e	16g	.
=92	=92	=92	=92
4D	8d	8f	8dd
.	8d	8f	8dd
8r	8e	8g	8r
8A	16d	16f	8ccc#
.	16e	16g	.
=93	=93	=93	=93
4D	8d	8f	8ddd
.	8d	8f	8ddd
8r	8e	8g	8r
8A	16d	16f	8cc#
.	16e	16g	.
=94	=94	=94	=94
8D	8d	8f	8dd
8A	8e	8g	8cc#
8D	8d	8f	8dd
8A	8e	8g	8cc#
=95	=95	=95	=95
4D	4d	4f	4dd
4r	4r	4r	4r
=96	=96	=96	=96
2D	2d	2dd	2ddd
=97	=97	=97	=97
2AA	2A	2a	2aa
=98	=98	=98	=98
8FF	8F	8f	8ff
8FF	8F	8f	8ff
8GG	8G	8g	8gg
16FF	16F	16f	16ff
16GG	16G	16g	16gg
=99	=99	=99	=99
4AA	4A	4a	4aa
4r	4r	4r	4r
=100	=100	=100	=100
2r	2r	8cc#	8ee
.	.	8cc#	8ee
.	.	8dd	8ff
.	.	16cc#	16ee
.	.	16dd	16ff
=101	=101	=101	=101
2r	2r	4ee	4gg
.	.	4r	4r
=102	=102	=102	=102
2AA	8g	8b-	2cc#
.	8g	8b-	.
.	8g	8b-	.
.	16f	16a	.
.	16e	16g	.
=103	=103	=103	=103
4DD	4d	4f	4dd
4r	4r	4r	4r
==	==	==	==
*-	*-	*-	*-
!!!RWG1: This file contains only pitch and duration data.
!!!RWG2: Transposing instruments are not transposed.
!!!RWG3: Spines may have incompatible meters.
!!!RWG4: Durations of rests and tied notes may be interpreted.
!!!RWG: Key is interpreted using the Humdrum key tool.
!!!AFT: stage1
!!!END: 1997/04/15
!!!KEY: 3049049715
!!!EMD: Converted from MuseData to Humdrum Dec 16, 2000, by Andreas Kornstaedt using muse2kern.
!!!EMD: Manual editing by Craig Sapp, Nov 2001
